icons/op-mobile-24.svg

<svg width="24" height="24" viewBox="0 0 24 24" fill="none" xmlns="http://www.w3.org/2000/svg">
<path d="M14.2764 13.7519H4.81301V7.08527C4.81301 6.89922 5.04065 6.68217 5.23577 6.68217H17.3984C17.626 6.68217 17.8211 6.89922 17.8211 7.08527V8.97674H18.6667V7.08527C18.6667 6.49612 18.1463 6 17.5285 6H5.13821C4.52033 6 4 6.49612 4 7.08527V14.5271C4 15.1163 4.52033 15.6124 5.13821 15.6124H14.2764V13.7519ZM13.1382 16.2326H9.49593C9.20325 16.2326 8.97561 16.4186 8.97561 16.7287C8.97561 17.0078 9.20325 17.2248 9.49593 17.2248H13.1382C13.4634 17.2248 13.6585 17.0078 13.6585 16.7287C13.6585 16.4186 13.3659 16.2326 13.1382 16.2326ZM19.8049 10.062C19.7073 9.96899 19.6098 9.96899 19.4797 9.87597H15.8374C15.6423 9.87597 15.5447 9.96899 15.3171 10.062C15.2195 10.155 15.122 10.3721 15.122 10.5581V17.3178C15.122 17.7209 15.4472 18 15.8374 18H19.2846C19.7073 18 20 17.7209 20 17.3178V10.5581C20 10.3721 19.9024 10.155 19.8049 10.062ZM19.4797 16.7287H15.7398V10.7752H19.4797V16.7287ZM17.0081 10.2791L17.1057 10.155H17.9187C18.0488 10.155 18.0488 10.155 18.0488 10.2791C18.0488 10.3721 17.9187 10.3721 17.9187 10.3721H17.2033C17.1057 10.3721 17.0081 10.3721 17.0081 10.2791ZM17.626 17.7209C17.5285 17.7209 17.3984 17.7209 17.3984 17.5969C17.3008 17.5039 17.3008 17.4109 17.3008 17.3178C17.3008 17.1008 17.5285 16.9147 17.7236 16.9147C17.9187 16.9147 18.1463 17.1008 18.1463 17.3178C18.1463 17.4109 18.0488 17.5039 18.0488 17.5969C17.8211 17.5969 17.7236 17.7209 17.626 17.7209ZM18.0488 10.3721C18.1463 10.3721 18.1463 10.3721 18.1463 10.2791C18.1463 10.155 18.0488 10.155 18.0488 10.155H17.2033C17.1057 10.155 17.1057 10.155 17.1057 10.2791C17.1057 10.3721 17.2033 10.3721 17.2033 10.3721" fill="black"/>
</svg>

<svg xmlns="http://www.w3.org/2000/svg" width="24" height="24" viewBox="0 0 24 24"><path d="M14.276 13.752H4.813V7.085c0-.186.228-.403.423-.403h12.162c.228 0 .423.217.423.403v1.892h.846V7.085c0-.589-.521-1.085-1.138-1.085H5.138C4.52 6 4 6.496 4 7.085v7.442c0 .589.52 1.085 1.138 1.085h9.138v-1.86Zm-1.138 2.481H9.496c-.293 0-.52.186-.52.496 0 .279.227.496.52.496h3.642c.325 0 .521-.217.521-.496 0-.31-.293-.496-.521-.496Zm6.667-6.171c-.098-.093-.195-.093-.325-.186h-3.643c-.195 0-.292.093-.52.186a.781.781 0 0 0-.195.496v6.76c0 .403.325.682.715.682h3.448c.422 0 .715-.279.715-.682v-6.76a.781.781 0 0 0-.195-.496Zm-.325 6.667h-3.74v-5.954h3.74v5.954Zm-2.472-6.45.098-.124h.813c.13 0 .13 0 .13.124 0 .093-.13.093-.13.093h-.716c-.097 0-.195 0-.195-.093Zm.618 7.442c-.097 0-.228 0-.228-.124-.097-.093-.097-.186-.097-.279 0-.217.228-.403.423-.403.195 0 .422.186.422.403 0 .093-.097.186-.097.279-.228 0-.325.124-.423.124Zm.423-7.349c.097 0 .097 0 .097-.093 0-.124-.097-.124-.097-.124h-.846c-.097 0-.097 0-.097.124 0 .093.097.093.097.093"/></svg>
